X: 1
T: G\aangl\aat efter Timas Anders
O: Sweden
D: P\aal Olle & Nils Agenmark [Sonet SLP 2047]
R: gaanglaat, snoa
S: handwritten MS by John Chambers (1970s)
M: C
L: 1/8
K: D
fg |:\
"D"a2 a2 fa "A7"ge | "D"dc df A3 d |\
[1,3 "A7"cd ef gf ge | "D"dc de f2 "A7"g2 :|\
[2,4 "At"cd ef gf ed | e4 "D"d2 z2 :|
f2 |:\
"D"fe d2 fe d2 | f2 f2 fe fa | "A7"a2 g2 ga gf | e6 Ac |\
"A7"e2 Ac e2 Ac | e2 ed c2 b2 | a3 b af ge | "D"d6 z2 :|
